X:1
T:Leaning on the Everlasting Arms
T:Text: Elisha A. Hoffman (1839-1929) Tune: Anthony J. Showalter (1858-1924)
T:10 9 10 9 Refrain SHOWALTER www.hymnary.org/text/what_a_fellowship_what_a_joy_divine
T:Leaning on the Everlasting Arms
T:This hymn is in the public domain.  You may freely use this score for personal and congregational worship.  If you reproduce the score, please credit Hymnary.org as the source. 
T:This hymn is in the public domain.  You may freely use this score for personal and congregational worship.  If you reproduce the score, please credit Hymnary.org as the source. 
Z:This hymn is in the public domain.  You may freely use this score for personal and congregational worship.  If you reproduce the score, please credit Hymnary.org as the source.
%%score 1 ( 2 3 )
L:1/8
M:4/4
K:Ab
V:1 treble nm="Piano" snm="Pno."
V:2 bass nm="Piano" snm="Pno."
V:3 bass 
V:1
 [Ec]2 [Ec]2 [Ec]>[DB] [CA]2 | [DB]2 [DB]2 [DB]>[DA] [DF]2 | [CE]2 [CE]2 [CA]>[B,G] [CA][DB] | %3
w: 3~What have I to dread,|what have I to fear,|lean- ing on the e- ver-|
w: 1~What a fel- low- ship,|what a joy di- vine,|lean- ing on the e- ver-|
w: 2~O how sweet to walk|in this pil- grim way,|lean- ing on the e- ver-|
 [Ec]2 [Ec]2 [EB]4 | [Ec]2 [Ec]2 [Ec]>[DB] [CA]2 | [DB]2 [DB]2 [DB]>[DA] [DF]2 | %6
w: las- ting arms?|I have bles- sed peace|with my Lord so near,|
w: las- ting arms;|what a bles- sed- ness,|what a peace is mine,|
w: las- ting arms;|O how bright the path|grows from day to day,|
 [CE]2 [CE]2 [CA]>[B,G] [CA][DB] | [Ec]2 [DB]2 [CA]4 ||"^Refrain" [Ec]4 [CA]4 | [FA]4 [DF]4 | %10
w: lean- ing on the e- ver-|las- ting arms.|Lean- ing,|lean- ing,|
w: lean- ing on the e- ver-|las- ting arms.|||
w: lean- ing on the e- ver-|las- ting arms.|||
 [CE]2 [CA]>[DG] [EA]2 [EB]2 | [Ec]2 [Ec]2 [EB]4 | [Ec]4 | [CA]4 | [FA]4 [DF]4 | %15
w: safe and se- cure from|all a- larms;|lean-|ing,|lean- ing,|
w: |||||
w: |||||
 [CE]2 [CE]2 [CA]>[B,G] [CA][DB] | [Ec]2 [DB]2 [CA]4 |] %17
w: lean- ing on the e- ver-|las- ting arms.|
w: ||
w: ||
V:2
 [A,,A,]2 [A,,A,]2 [A,,A,]>[A,,E,] [A,,E,]2 | [D,F,]2 [D,F,]2 [D,F,]>[D,F,] [D,A,]2 | %2
w: ||
 [A,,A,]2 [A,,A,]2 [A,,E,]>[A,,E,] [A,,E,][A,,E,] | A,2 A,2 [E,G,]4 | %4
w: ||
 [A,,A,]2 [A,,A,]2 [A,,A,]>[A,,E,] [A,,E,]2 | [D,F,]2 [D,F,]2 [D,F,]>[D,F,] [D,A,]2 | %6
w: ||
 [E,A,]2 [E,A,]2 E,>E, E,E, | [E,A,]2 [E,G,]2 [A,,A,]4 || A,2 A,>A, A,2 A,2 | %9
w: ||Lean- ing on Je- sus,|
 [D,A,]2 [D,A,]>[D,A,] [D,A,]2 [D,A,]2 | [A,,A,]2 [A,,E,]>[B,,E,] [C,A,]2 [E,G,]2 | %11
w: lean- ing on Je- sus,||
 A,2 A,2 [E,G,]4 | A,2 A,>A, | A,2 A,2 | [D,A,]2 [D,A,]>[D,A,] [D,A,]2 [D,A,]2 | %15
w: |lean- ing on|Je- sus,|lean- ing on Je- sus,|
 [E,A,]2 [E,A,]2 E,>E, E,E, | [E,A,]2 [E,G,]2 [A,,A,]4 |] %17
w: ||
V:3
 x8 | x8 | x8 | A,2 A,2 x4 | x8 | x8 | x4 E,>E, E,E, | x8 || A,2 A,>A, A,2 A,2 | x8 | x8 | %11
 A,2 A,2 x4 | A,2 A,>A, | A,2 A,2 | x8 | x4 E,>E, E,E, | x8 |] %17

